X:1
T:TRIO
T:TRIO
T:F. Kuhlau, op 119
C:F. Kuhlau, op 119
%%score ( 1 2 ) 3
L:1/8
Q:1/4=90
M:6/8
K:G
V:1 treble nm="Flûte" snm="Fl."
V:2 treble 
V:3 treble transpose=-9 nm="Saxophone Alto" snm="Sax. A."
V:1
 z6 | z6 | z6 | z6 | z6 | z6 | z6 | z6 |"^piano" d>=fb ^c>ea | =c(3_e/d/c/a B(3d/c/B/g | %10
 A>ce F>Ad |"^Flute I" (b3 d'3 |"_P dolce\n" g2- g/a/4b/4 c'2 b | aef gbe' | d'>ad'/c'/ b2) z | %15
 (g'3 f'2 b | e'3 d'2 g) |!<(! (c'3- c'be'-!<)! |!>(! e'/d'/).c'/.b/!>)!.a/.g/ .f/.e/.d/.c/.B/.A/ | %19
 (e>dc/B/) (B/d/c/B/c/A/) | G2 z z2 z | z2 z"_con grazia" d'd'd' | (e'>d'b/a/ g) z z | %23
 z2 z (^c'/d'/c'/d'/c'/d'/ | e'>d'b/a/ g) z2 | z2 z/ g/ (gc'e') | d'2 b z z2 | %27
 z2 z/ g/ (g/c'/)(c'/e'/)(e'/d'/) | (d'2 b) z z2 | z2 z/ (b/!<(! ^a/^c'/e'/g'/!<)!!>(!f'/e'/)!>)! | %30
 (e'/d'/^c'/d'/b) z2 z | z2 z/ (b/ ^a/^c'/e'/g'/f'/e'/ |"_dim." d'/)^c'<(ba/ ^g/b/d'/=f'/e'/d'/ | %33
 =c'/)(b<a=g/ ^f/a/c'/_e'/d'/c'/ | _b) z/!p! (b/a/g/ f/a/c'/_e'/d'/c'/ | %35
 _b) z/ (b/a/g/ f/a/c'/_e'/d'/c'/) | (c'/_b<)(!>!ba/){/=b} (a/g<)(!>!g=f/) | %37
{/g} =f/=e/e/e/e/e/{/=f} e/d/d/d/d/d/ | ^c z/!f!!f! a/^g/=g/ f z/ .e/.d/.c/ | %39
 ^c z/ .a/.=b/.^c'/ d' z/ .=f/.g/.^g/ | a2 z z2 z | z6 | z6 | z6 | z6 | z6 | z6 | z6 | %48
"^piano" ^e/f/^c/d/F/c/ A2 c/>B/ | AAB ^cd=G |!p! (F>"_dolcissimo"Ac/f/ a2 d' | %51
 ^c'>b^a/b/ e2) (e/>b/) | (!>!b>af/d/ !>!b>ag/e/ | d)dTe({de)} f2 z | z6 | z6 | z6 | z6 | z6 | z6 | %60
 z!f! (3(F/G/A/(3B/^c/d/ (3e/f/g/(3a/b/^c'/(3d'/c'/b/ | %61
 (3a/b/a/(3g/a/g/(3f/e/f/ (3a/g/f/(3e/d/^c/(3B/A/G/ | F/) z/ (!>!d'>^c' b/^a<c'e/) | %63
 d/ z/ (!>!b>a g/f/a/=c/).c/.c/ | .B/ z/ (!>!g'>f' e'/^d'/f'/a/).a/.a/ | %65
 (Pa/g/e'/g/).g/.g/ (Pg/f/=d'/f/).f/.f/ | %66
 (3(e/b/^a/(3b/=a/g/(3f/e/d/"_dim." (3^c/g/f/(3e/d/^c/(3B/A/G/ | F) z z z!f! (3(d/^c/d/(3=f/e/d/ | %68
!p! ^f/) z/ (!>!a>f e/) z/ (!>!g>^c | d) z z z (T^g2 |!p!({^fg)} a/) z/ (.f'>d' ^c'/) z/ (g'>c' | %71
 d') z!f! (f/>a/ d') z (f/>a/ | d').f'.a .d'2 z :| z!f! (3(f/e/f/(3g/f/g/ a) d2- | %74
 d(3(f/e/f/(3g/f/g/ a) (c2 | ^d)(3(f/e/f/(3g/f/g/ a)(3(a/g/a/(3b/a/b/ | %76
!>(! (=c'(3c'/)b/a/(3g/f/e/)!>)! .^d.d.d | (e(3g/f/g/(3a/g/a/ .b) e2- | %78
 e(3(g/f/g/(3a/g/a/ .b) (!>!e2 | ^e)(3(^g/f/g/(3a/g/a/ b)(3(b/a/b/(3^c'/b/c'/ | %80
!>(! (d'(3d'/)^c'/b/(3a/^g/f/)!>)! .^e.e.e | f z z z (a>f | ^e/) z/ (^g^e/d/) z (^c>B | %83
 A) z z z (^c'>a | ^g/) z/ (b>g ^e/) z/ (g>e | f) z z z2 z | z6 | z!<(! (A^c fa^c'!<)! | %88
 f/) z/ (d'>b a/) z/ b/ z/ ^g/ z/ | f z z4 | z"_cresc." (3(=f/e/f/(3=g/f/g/ a)aa | d'6 | %92
 z (3(_e/d/e/(3=f/e/f/ g)gg |!f! (c'3 (3c'/)(c'/_b/(3a/g/^f/(3_e/d/=c/ | %94
 _B) z (3z/ (e'/f'/ (3g'/e'/^c'/(3_b/g/=e/(3^c/B/G/ | %95
 F)(3(D/F/A/(3d/f/a/) (3(d'/a/f/(3d/A/F/(3D/F/A/) | d z z4 | z6 | z6 | z6 | z6 | z6 | z6 | z6 | %104
 z!p! (3(d'/^c'/d'/(3e'/d'/e'/ f'3) | z (3(b/^a/b/(3^c'/b/c'/ d'3) | %106
 z!<(! (3(g/f/g/(3=a/g/a/ .^a).a.a!<)! | b3 z z2 | z6 | z6 | z2 z (3z/ (d/e/(3^e/f/g/(3^g/a/^a/ | %111
"_dolce" b3 d'3) | (g2- g/a/4b/4 c'2 b | aef gbe' | d'>ad'/c'/ b2) z | (g'3 f'2 b | e'3 d'2 g) | %117
!<(! c'3- c'b!<)!!>(!((e' | (3e'/)d'/c'/!>)!(3b/a/g/(3f/e/d/ (3c/B/A/(3^G/B/c/(3e/d/c/) | %119
 (3(B/d/=g/(3b/d'/c'/(3b/a/g/ (3f/e/d/(3c/B/d/(3c/B/A/ | G) z z z2 z | z2 z d'd'd' | %122
 (e'>d'b/a/ g) z z | z2 z (^c'/d'/c'/d'/c'/d'/ | e'>d'a/g/ g) z2 | z2 z/ g/ gc'e' | (d'2 b) z z2 | %127
 z2 z/ g/ (g/c'/)(c'/e'/)(e'/d'/) | (d'2 b) z z2 | z2 z/!<(! (b/ ^a/^c'/e'/!<)!!>(!g'/f'/e'/)!>)! | %130
 (e'/d'/^c'/d'/b) z z2 | z2 z/ (b/!<(! ^a/^c'/e'/!<)!!>(!g'/f'/e'/!>)! | %132
"_dim." d'/).^c'<(b=a/ ^g/b/d'/=f'/e'/d'/ | =c'/)b<(a=g/ ^f/a/c'/_e'/d'/c'/ | %134
 =b) z/!p! (b/a/g/ f/a/c'/_e'/d'/c'/ | _b) z/ (b/a/g/ f/a/c'/_e'/d'/c'/) | %136
"_cresc." c'/_b<(!>!ba/) (Pa/g<)(!>!g^c/) | d z/!f!!f! .d'/.^c'/.=c'/ _b z/ .b/.a/.g/ | %138
 f z/ .d'/.=e'/.f'/ g' z/ ._b/.c'/.^c'/ | d'2 z4 | z6 | z6 | z6 | z6 | z6 | z6 | z6 | z6 | z6 | %149
!p! (B>"_dolcissimo"dg/b/ d'2 g' | f'>e'^d'/e'/ a2) (a/>e'/) | (e'>=d'b/g/ e'>d'c'/a/ | %152
 g)ga({ga)} b2 z | z6 | z6 | z6 | z6 | z6 | z6 | %159
 z!f! (3(B/c/d/(3e/f/g/ (3a/b/c'/(3d'/e'/f'/(3g'/f'/e'/ | %160
 (3d'/e'/d'/(3c'/d'/c'/(3b/a/b/ (3d'/c'/b/(3a/g/f/(3e/d/c/ | B/) z/ (!>!g'>f' e'/^d'<!>!f'a/) | %162
 .g/ z/ (!>!e'>=d' c'/b/d'/=f/).f/.f/ | e/ z/ (!>!c'>b a/^g/b/)d/.d/.d/ | %164
 (Pd/c/a/c/).c/.c/ (Pc/B/g/)d'/.c'/.b/ | %165
 (3(a/e'/^d'/(3e'/=d'/c'/(3b/a/g/"_dim." (3f/c'/b/(3a/g/f/(3e/d/c/ | %166
 B) z z z (3(g/!f!f/g/(3_b/a/g/ |!p! =b/) z/ (d'>b a/) z/ (c'>f | g) z z z!f! (^c'2 | %169
!p! d'/) z/ (e'>b d'/) z/ (=c'>f | g) z z4 |!p! (b3"_dolce" d'3 | g3) z/ (d/e/f/g/a/ | b3 d'3 | %174
 g3) z z2 | z!f! .B.d .g.b.d' | b2 z g'2 z | g'2 z4 |] %178
[K:Eb][M:2/4]"^ADAGIO PATETICO""^piano"[Q:1/8=60] G2 EG | B,3/2D/4C/4 B,D/>C/ | B,E GB | %181
 B7/4F/4 G z |"_expressivo"!p! (g2 eg) | (b7/4d'/8c'/8 b)e'/>e'/ | %184
 (e'=a/>g'/) (g'-g'/4f'/8e'/8d'/8c'/8b/8=a/8) | (c'2 b) z |"^piano" _a2 gf | e7/4d/4 dB/>B/ | %188
 Bg/>e/ Be | dc/>B/ B/ z/ z | (g2 _ef) | (b7/4d'/8c'/8 b)(e'/>e'/ | %192
 e'/(3e'/4=b/4d'/4(3c'/4g/4_b/4(3a/4c/4f/4 (e)!turn!g/>f/) | (!>!f2 e) z | z4 | z2 z g/>g/ | %196
!<(! (g7/8e/8c'7/8g/8 e'7/8c'/8g'7/8e'/8)!<)! |!p! d'/>d'/(d'/({e'd')}.c'/4)d'/4 .e' z | z4 | %199
 z2 z f/>f/ |!<(! (f7/8d/8b7/8f/8 d'7/8b/8f'7/8d'/8)!<)! | c'/>c'/(c'/({d'c')}b/4).c'/4 d' z | %202
 z2 z/8 (G/8=A/8B/8c/8d/8=e/8^f/8g/8=a/8b/8c'/8d'/8=e'/8^f'/8g'/8) | %203
!>(! (g'/c'/) z z/8!p! (F/8G/8=A/8B/8c/8d/8=e/8f/8g/8=a/8b/8c'/8d'/8=e'/8f'/8)!>)! | %204
 z2 z/4!<(! (F/4=A/4c/4f/4=a/4c'/4d'/4!<)! | %205
!p! e'/4>)(d'/4.e'/4>)(f'/4d'/4>)(c'/4.d'/4>)(e'/4 c'/4)(c'/8d'/8e'/8f'/8g'/8f'/8e'/8d'/8c'/8b/8=a/8g/8f/8e/8 | %206
 d/) z/ z z2 | d7/8B/8d7/8c/8 B!p!f/>f/ |"_cresc." (f7/8d/8_a7/8g/8 fa/>)a/ | %209
 (a7/8f/8c'7/8b/8 a)f'/>f'/ |!f! (f'/>e'/f'/4e'/4f'/4e'/4"_dim." f'/4)_e'/4d'/4c'/4b/4a/4g/4f/4 | %211
 (=e/4f/4g/4f/4=a/4g/4f/4_e/4 d/)!p!(A/G/F/) | E z z2 | z4 |"^Flute II" Be gb | %215
 b7/4f/4 z/4!p! (E/4G/4B/4e/4g/4b/4e'/4) |"_expressivo" (g'2 e'g') | (b3/2d'/4c'/4 b)e'/>e'/ | %218
 (e'3/4d'/8c'/8=b/8c'/8d'/8c'/8_b/8a/8g/8f/8!<(! (e)!turn!g/>)!<)!!>(!f/ | (f2 e)!>)! z | a2 gf | %221
 e7/4d/4 dB/>B/ | Bg/>e/ Be | dc7/8B/8 B/!<(!(B/8c/8d/8e/8f/8g/8a/8b/8c'/8d'/8e'/8f'/8!<)! | %224
!mf! g'2 e'g') | (b3/2d'/4c'/4 b)e'/>e'/ | %226
 (e'3/4d'/8e'/8d'/8e'/8f'/8e'/8d'/8c'/8b/8a/8)!<(! (g!>(!!turn!a/>!<)!d/)!>)! |!f! (f2!p! e) z | %228
!f! (a2!p! g) z |!p! (Td'2({c'd')} e')e/>e/ | (!>!e>g b/)"_smorzando"(g'/4>e'/4b/)(g/4>d/4) | %231
 e3 z |][K:G][M:2/4]"^RONDO - allegro"[Q:1/4=90]"^\n" z2 | z4 | z4 | z4 | z4 | z4 | %238
 f'>e' d'/c'/b/a/ | g/f/c'/b/ a/g/f/e/ | d/c/f/e/ d/c/"_leggiero"!p!(B/c/ | ^c/d/e/f/ g/a/b/=c'/ | %242
 ^c'/d'/e'/d'/) .d'(c'/d'/) | .g'(^a/b/) .d'(f/g/) | (^g/=a/c'/b/ a)(d/e/ | %245
 f/g/a/b/ c'/^c'/d'/^d'/ |!f! f'>!<(!e' =d'/=c'/b/a/!<)! | ^g/a/b/a/ c'/)(d/e/f/ | a/=g/b/a/ g) z | %249
 z4 | z4 | z4 | z4 |!<(! (b2 ^d'2 | e'2 f'2!<)! |!f! g'!>(!f'/e'/ =d'/c'/b/^a/)!>)! | %256
 (b/^a/b/c'/ b)!p!(B/b/) | b(B/=a/) .a(B/g/) | g(B/f/) .f(B/e/) |!>(! (e3 f/e/!>)! | ^d2) z2 | %261
 (=d4 | G2 c2) | (c4 | B4 | A2) z2 | c2 z2 |!p! .B.d .B.d | .B.d .B.d | .B.d .B.d | .c.d .c.d | %271
 .c.d .c.d | .c.d .c.d | .c.d .c.d | .B.d .B!mf!(B/c/ | ^c/d/e/f/ g/a/b/=c'/ | %276
 ^c'/d'/e'/d'/) .d'c'/d'/ | g'(^a/b/) .d'(f/g/) | (^g/=a/c'/b/ a)(d/e/ | %279
!<(! f/=g/a/b/ c'/^c'/d'/^d'/!<)! |!>(! f'>e' =d'/=c'/b/a/!>)! | ^g/a/b/a/ c'/)(d/e/f/ | %282
 a/=g/b/a/ g) z | z4 | z4 | z4 | z2 z!f! .B/.c/ | (^c/d/).e/.f/ (g/a/).b/.=c'/ | %288
 (^c'/d'/).e'/.f'/ .g'(g'/f'/) | (e'/^d'/!>(!f'/e'/ =d'/=c'/b/a/)!>)! |!p! (g/a/)(f/g/) .e z | z4 | %292
 z4 | z4 | z2 z!f! .G/.A/ | (^A/B/).^c/.^d/ (e/f/).g/.=a/ | (^a/b/).^c'/.^d'/ .e'(e'/=d'/ | %297
 ^b/^c'/e'/d'/ c'/=b/a/g/ | f)!f!(f'/g/ d'/^c'/b/a/ | g/f/e/d/ ^c/e/a/g/ | f)(F/G/ A/B/^c/d/ | %301
 e/f/g/a/ b/a/b/c'/ | .d'>).d' .e'>.e' | .f'>.f' .^g>.g | a2 z (e' | =f')^g gg | a2 z (e | %307
 =f)^G GG | A z a z | z4 | z4 | z4 | z4 | z4 | z4 | z4 | z4 | z4 | z4 | z4 |"^piano" dd/e/ ff/g/ | %321
 aa/^c'/ d'd'/e'/ | f'>e' e'/d'/^c'/b/ | ab a!p!"_dolce scherzando"(a/^a/ | b)e e(f | %325
 a/).g/.=e/.d/ .^c(c/d/ | e)G GG | (F2 A)!f!.A/.^c/ | .d.d/.e/ .f.f/.g/ | .a.a/.^c'/ d'.d/.f/ | %330
 (a/g/).f/.e/"_dim." (e/d/).d/.^c/ | d2 z!p! (a/^a/ | b)e g^c | d2 z (a/^a/ | b)(e/f/ g)(B/^c/ | %335
 d2) z (a/^a/) | (^c'/b/).e/.f/ (=a/g/).B/.^c/ | d2 z2 | z4 | z!<(! (d/^c/ d/c/d/c/!<)! | %340
!>(! d/^c/d/c/ d)!>)! z | z!<(! (d'/^c'/ d'/c'/d'/c'/!<)! |!f!!>(! d'/^c'/d'/c'/ d')!>)! z | z4 | %344
 z4 | z4 | z4 | z4 | z4 | z4 | z4 | z4 | z4 | z4 | z2 z!p! (B/c/ | ^c/d/e/f/ g/a/b/=c'/ | %356
 ^c'/d'/e'/)d'/ .d'(c'/d'/) | .g'(^a/b/) .d'(f/g/) | (^g/a/c'/b/ a)(d/e/ | %359
!<(! f/=g/a/b/ c'/^c'/d'/^d'/!<)! |!>(! f'>e' =d'/=c'/b/a/!>)! | ^g/a/b/a/ c'/)(d/e/f/ | %362
 a/=g/b/a/ g) z | z4 | z4 | z4 | z4 |!<(! (b2 ^d'2 | e'2 f'2!<)! | %369
!f! g'!>(!f'/e'/ =d'/c'/b/^a/)!>)! | (b/^a/b/c'/ b)!p!(B/b/) | .b(B/=a/) .a(B/g/) | %372
 .g(B/f/) .f(B/e/) | (e3 f/e/ | ^d2) z2 |!f! (=d4 | G2 c2) | (c4 | B4) | (e4 | A2 d2) | (d4 | %382
 =c4) | (^f4 | B2 e2- | eA) .A.A | (A2 d2- | dG) .G.G | (G2 c2- | c2 B2 | A2 c2 |!p! B).d .B.d | %392
 .B.d .B.d | .B.d .B.d | .c.d .c.d | .c.d .c.d | .c.d .c.d | .c.d .c.d | .B.d .B!mf!(B/c/ | %399
 ^c/d/e/f/ g/a/b/=c'/ | ^c'/d'/e'/d'/) .d'(c'/d'/) | .g'(^a/b/) .d'(f/g/) | (^g/=a/c'/b/ a)(d/e/ | %403
!<(! f/=g/a/b/ c'/^c'/d'/^d'/!<)! |!>(! f'>e' =d'/=c'/b/a/!>)! | ^g/a/b/a/ c'/)(d/e/f/ | %406
 a/=g/b/a/!<(! g)(g/a/!<)! |!ff! _b)b bb | _b z z2 | z4 | z4 ||[K:Eb]!p!"_expressivo" (b4 | g2 e2 | %413
 B3 d/c/ | B2) z B | (B2 e2 | g2 c'2 | b3 f | g2) z2 | (e'4 | d'2 c'2 | !>!d'3 =a | b3 g) | %423
 (g2- g/e/c/=A/ | G) (B2 =A) | G4- | G2 z2 | z4 | z4 | z4 | z4 | z4 | z4 | z4 | z4 | z4 | z4 | z4 | %438
 z4 | z4 | z4 | z4 | z4 | z4 | z4 | z4 | z4 | z4 | z4 | z4 |"_dolce" (a'3 f' | d'b =a_a | g2) z2 | %453
 z4 | (a3 f | dB =A_A | G2) z2 |!<(! (e'4- | e'3!<)!!>(! c') | (c'a) (ac')!>)! |!p! d z e z | %461
 f z d z | (b4 |!<(! g2 e2)!<)! |!>(! (c'3 a) | (af) (fa)!>)! |!p! AA z G | z c z A | G2 z!f! (g' | %469
 a')d' d'd' | e'2 z (g | a)d dd | e(e'/d'/) (f'/e'/d'/c'/) |"_dim." (c'/=b/)(b/a/) (a/g/)(g/f/) | %474
 e2 z!f! (e' | f')=b bb | c'2 z (e | f)=B BB | c(c'/=b/) (d'/c'/)(e'/d'/) | %479
 (d'/c'/)(c'/_b/) (b/=a/)(a/g/) | ^f2 z!f! a | bg gg | ^f2 z (^f' | g')^c' c'c' | d' z (^c'2 | %485
 d') z (^c'2 | d') z d z | z4 | z4 | z4 | z4 | z4 | z4 | z4 | z4 | z4 | z4 | z4 || z4 | z4 | z4 | %501
 z4 | z4 | z4 | z4 | z2 z (d'/^d'/ | e')a a(Tb |{^ab} d'/)c'/.=a/.g/ .f(f/g/ | a)c cc | %509
 (B2 d)!f!.d/.f/ | g.g/.a/ b.b/.c'/ | d'.d'/.f'/ g'.g/.b/ | %512
 (d'/c'/).b/.a/"_dim."{b} (a/g/){b}(g/f/) | g2 z!p! (d'/^d'/ | e'a c'f | g2) z (d'/^d'/ | %516
 e')(a/b/ c')(e/f/ | g2) z (d'/^d'/) | (f'/e'/).a/.b/ (=d'/c'/).e/.f/ | g2 z2 | z4 | %521
 z!<(! (g/f/ g/f/g/f/!<)! |!>(! g/f/g/f/ g)!>)! z | z!<(! (g'/f'/ g'/f'/g'/f'/!<)! | %524
!f! g'/f'/g'/f'/ g') z | z4 | z4 | z4 | z4 | z4 |"_dolce"!p! (e'4 | d'4 | f3)!f! (B/c/ | %533
 ^c/d/e/f/ g/a/b/=c'/ | ^c'/d'/e'/d'/) .d'.d' |!>(! d'4- | d'2!>)! z (B/c/ | %537
"_cresc." ^c/d/e/f/ g/a/b/=c'/ | ^c'/d'/e'/d'/) .d'.d' |!>(! d'4- | d'2!>)! z!p! .B/.c/ | %541
"_leggiero" (^c/d/).e/.f/ .g/.a/.b/.=c'/ | (^c'/d'/e'/d'/) .d' z | z4 | z2 z .B/.c/ | %545
"_cresc." (^c/d/).e/.f/ .g/.a/.b/.=c'/ | (^c'/d'/e'/d'/) (d'/=c'/).b/.a/ | %547
 g z!f!"_sempre" (d'3/2e'/4f'/4 | g') z (d3/2e/4f/4 | g) z (d'3/2e'/4f'/4 | g') z d3/2e/4f/4- | %551
 f z z .b/.c'/ | (^c'/d'/).e'/.d'/ (d'/=c'/).b/.a/ | g.g/.^g/ .a/.^a/.b/.c'/ | %554
 (^c'/d'/).e'/.d'/ (d'/=c'/).b/.a/ | g z z/ .B/.d/.g/ | .b/.d/.g/.b/ .d'/.g/.b/.d'/ | .g' z z2 | %558
 .d'2 z2 | .b2 z2 |] %560
V:2
 x6 | x6 | x6 | x6 | x6 | x6 | x6 | x6 | x6 | x6 | x6 | x6 | x6 | x6 | x6 | x6 | x6 | x6 | x6 | %19
 x6 | x6 | x6 | x6 | x6 | x6 | x6 | x6 | x6 | x6 | x6 | x6 | x6 | x6 | x6 | x6 | x6 | x6 | x6 | %38
 x6 | x6 | x6 | x6 | x6 | x6 | x6 | x6 | x6 | x6 | x6 | x6 | x6 | x6 | x6 | x6 | x6 | x6 | x6 | %57
 x6 | x6 | x6 | x6 | x6 | x6 | x6 | x6 | x6 | x6 | x6 | x6 | x6 | x6 | x6 | x6 :| x6 | x6 | x6 | %76
 x6 | x6 | x6 | x6 | x6 | x6 | x6 | x6 | x6 | x6 | x6 | x6 | x6 | x6 | x6 | x6 | x6 | x6 | x6 | %95
 x6 | x6 | x6 | x6 | x6 | x6 | x6 | x6 | x6 | x6 | x6 | x6 | x6 | x6 | x6 | x6 | x6 | x6 | x6 | %114
 x6 | x6 | x6 | x6 | x6 | x6 | x6 | x6 | x6 | x6 | x6 | x6 | x6 | x6 | x6 | x6 | x6 | x6 | x6 | %133
 x6 | x6 | x6 | x6 | x6 | x6 | x6 | x6 | x6 | x6 | x6 | x6 | x6 | x6 | x6 | x6 | x6 | x6 | x6 | %152
 x6 | x6 | x6 | x6 | x6 | x6 | x6 | x6 | x6 | x6 | x6 | x6 | x6 | x6 | x6 | x6 | x6 | x6 | x6 | %171
 x6 | x6 | x6 | x6 | x6 | x6 | x6 |][K:Eb][M:2/4] x4 | x4 | x4 | x4 | x4 | x4 | x4 | x4 | x4 | x4 | %188
 x4 | z2 z/4!<(! B/4c/4d/4e/4=e/4f/4^f/4!<)! | x4 | x4 | x4 | x4 | x4 | x4 | x4 | x4 | x4 | x4 | %200
 x4 | x4 | x4 | x4 | x4 | x4 | x4 | x4 | x4 | x4 | x4 | x4 | x4 | x4 | x4 | x4 | x4 | x4 | x4 | %219
 x4 | x4 | x4 | x4 | x4 | x4 | x4 | x4 | x4 | x4 | x4 | x4 | x4 |][K:G][M:2/4] x2 | x4 | x4 | x4 | %236
 x4 | x4 | x4 | x4 | x4 | x4 | x4 | x4 | x4 | x4 | x4 | x4 | x4 | x4 | x4 | x4 | x4 | x4 | x4 | %255
 x4 | x4 | x4 | x4 | x4 | x4 | x4 | x4 | x4 | x4 | x4 | x4 | x4 | x4 | x4 | x4 | x4 | x4 | x4 | %274
 x4 | x4 | x4 | x4 | x4 | x4 | x4 | x4 | x4 | x4 | x4 | x4 | x4 | x4 | x4 | x4 | x4 | x4 | x4 | %293
 x4 | x4 | x4 | x4 | x4 | x4 | x4 | x4 | x4 | x4 | x4 | x4 | x4 | x4 | x4 | x4 | x4 | x4 | x4 | %312
 x4 | x4 | x4 | x4 | x4 | x4 | x4 | x4 | x4 | x4 | x4 | x4 | x4 | x4 | x4 | x4 | x4 | x4 | x4 | %331
 x4 | x4 | x4 | x4 | x4 | x4 | x4 | x4 | x4 | x4 | x4 | x4 | x4 | x4 | x4 | x4 | x4 | x4 | x4 | %350
 x4 | x4 | x4 | x4 | x4 | x4 | x4 | x4 | x4 | x4 | x4 | x4 | x4 | x4 | x4 | x4 | x4 | x4 | x4 | %369
 x4 | x4 | x4 | x4 | x4 | x4 | x4 | x4 | x4 | x4 | x4 | x4 | x4 | x4 | x4 | x4 | x4 | x4 | x4 | %388
 x4 | x4 | x4 | x4 | x4 | x4 | x4 | x4 | x4 | x4 | x4 | x4 | x4 | x4 | x4 | x4 | x4 | x4 | x4 | %407
 x4 | x4 | x4 | x4 ||[K:Eb] x4 | x4 | x4 | x4 | x4 | x4 | x4 | x4 | x4 | x4 | x4 | x4 | x4 | x4 | %425
 x4 | x4 | x4 | x4 | x4 | x4 | x4 | x4 | x4 | x4 | x4 | x4 | x4 | x4 | x4 | x4 | x4 | x4 | x4 | %444
 x4 | x4 | x4 | x4 | x4 | x4 | x4 | x4 | x4 | x4 | x4 | x4 | x4 | x4 | x4 | x4 | x4 | x4 | x4 | %463
 x4 | x4 | x4 | x4 | x4 | x4 | x4 | x4 | x4 | x4 | x4 | x4 | x4 | x4 | x4 | x4 | x4 | x4 | x4 | %482
 x4 | x4 | x4 | x4 | x4 | x4 | x4 | x4 | x4 | x4 | x4 | x4 | x4 | x4 | x4 | x4 || x4 | x4 | x4 | %501
 x4 | x4 | x4 | x4 | x4 | x4 | x4 | x4 | x4 | x4 | x4 | x4 | x4 | x4 | x4 | x4 | x4 | x4 | x4 | %520
 x4 | x4 | x4 | x4 | x4 | x4 | x4 | x4 | x4 | x4 | x4 | x4 | x4 | x4 | x4 | x4 | x4 | x4 | x4 | %539
 x4 | x4 | x4 | x4 | x4 | x4 | x4 | x4 | x4 | x4 | x4 | x4 | x4 | x4 | x4 | x4 | x4 | x4 | x4 | %558
 x4 | x4 |] %560
V:3
[K:E] z6 | z6 | z6 | z6 | z6 | z6 | z6 | z6 | z6 | z6 | z6 | (e3 d3 | c3- c2 B) | (A>FB/A/ GEe | %14
 dBf d2) z | (g2 ^a b3) | z (ef g3) |!<(! z (cd e2!>(! ^A!<)!!>)! | B) z z4 | z6 | %20
 z2 z"_con grazia" BBB | (c>BA/F/ D)DD |{F} (E/D/E/F/G) (^A/B/A/B/A/B/ | c>BA/F/ D)DD | %24
{F} (E/D/E/F/G) eee | (f>ec/B/ A)AA |{A} (G/F/G/A/B) (d/e/d/e/d/e/ | f>ec/B/ A)AA | %28
{A} (G/^^F/G/A/B B)BB |{c} (B/^A/B/c/d d3) | z3 (BBB |{c} B/^A/B/c/d- d3- | d2 =d) (c3- | %33
 c2 ^c) (B3- | B/=c/B/^A/B) z BB | (B/c/B/^A/B) z BB | (B2 d e2 f | =g>).g.f/.e/ !>!=d>.d.c/.B/ | %38
 f z/ .f/.^g/.^a/ b z/ .=d/.e/.^e/ | f z/ .f/.^e/.=e/ =d z/ .d/.c/.B/ | ^A2 z4 | z6 | z6 | z6 | %44
 z6 | z6 | z6 | z6 | z6 | z6 | z6 | z6 | z6 | z3 z2 d/>^a/ | (^a2 b/a/ gd)d | %55
 (g!<(!{^ag}^^f/g/=a/g/)!>(! (g/^f/^e/f/c)!<)!!>)! |!>(! (f2 g/f/) (e/!>)!=e/d/e/G/c/) | %57
 (B3- B{cB^AB}!>!d>c | B2) z4 | z6 | z!f! (3(B,/C/D/(3E/F/G/ (3^A/B/c/(3d/e/f/(3g/f/e/ | %61
 (3d/e/d/(3c/d/c/(3B/^A/B/ (3d/c/B/(3A/G/F/(3E/D/C/ | B,/) z/ (e>c B/^A<!>!cB/) | %63
 G/ z/ (!>!B>=A G/F/A/F/).F/.F/ | .E/ z/ (!>!g>f e/d/f/d/).d/.d/ | %65
 (Pd/c/e/c/).c/.c/ (Pc/B/d/B/).B/.B/ | (3G/(e/d/(3e/d/c/(3B/^A/G/ (3F/c/B/(3A/G/F/(3E/D/C/ | %67
 B,) z z z (T^e2{^de} |!p! f/) z/ (!>!d'>b ^a/) z/ (!>!c'>e | d) z z z (3(B/^A/B/(3=d/c/B/ | %70
 ^d/) z/ (f>d c/) z/ (!>!c'>e | d) z!f! (B/>f/ d) z3/4 (F/<B/f/4 | d).f.d .B2 z :| %73
 z2 z z!f! (3(d/c/d/(3e/d/e/ | f) !>!B2- B(3(d/c/d/(3e/d/e/ | f) !>!^B2- B(3(d/c/d/(3e/d/e/ | %76
 .f).d.^B ((=A(3A/)G/F/(3A/G/F/ | E) z z z (3(e/d/e/(3f/e/f/ | .g) !>!c2- c(3(e/d/e/(3f/e/f/ | %79
 .g) !>!^^c2- c(3(^e/d/e/(3f/e/f/ | .g).^e.^^c!>(! ((B(3B/)^A/G/(3B/A/G/!>)! | F) z z4 | z6 | %83
 z2 z z!p! (f>"_dolce"e | ^^c/) z/ (^e>c B/) z/ (A>G | F) z z4 | z6 | z!<(! (DF ^Adf!<)! | %88
 B/) z/ g>^e d/.^A/.e/.A/.^^c/.A/ | .d(3(F/^E/F/(3G/F/G/ ^A)AA |"_cresc." B6 | %91
 z (3(^e/^d/e/(3f/e/f/ g)gg | =a6 | z (3(^d/c/d/(3=e/d/e/ .f) !>!D2- | %94
 D(3(e/d/e/(3f/e/f/ =g) (!>!^a2 | b) z z (3(B/d/f/(3B/d/f/(3b/f/d/ | B) z z4 | z6 | z6 | z6 | %100
!p! (g3"_dolce" b3 | e2- e/f/4g/4 a2 g | fcd egc' | b>fb/a/ g2) z | z6 | z6 | z6 | z6 | z6 | z6 | %110
 z6 |!p! (e3 d3 | c3- c2 B) | (A>FB/A/ GEe | dBf e2) z | z (3(g/^^f/g/(3^a/g/a/ b3) | %116
 z (3(e/d/e/(3^f/e/f/ g3) | z!<(! (3(c/^B/c/(3d/c/d/!<)!!>(! e2 ^A!>)! | =B) z z4 | z6 | %120
 z2"_con grazia" z bbb | (c'>ba/f/ d)dd |({f} e/d/e/f/g) (^a/b/a/b/a/b/ | c'>b=a/f/ d)dd | %124
({f} e/d/e/f/g e)ee | (f>ec/B/ A)AA |({A} G/F/G/A/.B) (d/e/d/e/d/e/ | f>ec/B/ A)AA | %128
({A} G/^^F/G/A/.B B)BB |({c} B/^A/B/c/!>(!d- d3)!>)! | z3 bbb |({c'} b/^a/b/c'/d'- d'3- | %132
 d'2 =d') (c'3- | c'2 =c') (b3- |!p! b/=c'/b/^a/b) z bb | (b/c'/b/^a/b) z bb | %136
"_cresc." b>(b=c'/b/) (!>!^a>=gf/e/) | d z/ .B/.^c/.d/ e z/ .=G/.A/.^A/ | %138
 B z/ .b/.^a/.=a/ =g z/ .g/.f/.e/ | d2 z4 | z6 | z6 | z6 | z6 | z6 | z6 | z6 | z6 | z6 | z6 | z6 | %151
 z6 | z3 z2 (g/>d'/) | (d'2 e'/d'/ c'gg) | (c'{d'c'}^b/c'/d'/c'/) (c'/=b/^a/b/f) | %155
 (b2 c'/b/) (b/=a/g/a/c/f/) | (e3- e!>!!turn!g>f | e2) z z2 z | z6 | %159
 z!f! (3E/F/G/(3A/B/c/ (3d/e/f/(3g/a/b/(3c'/b/a/ | %160
 (3g/a/g/(3f/g/f/(3e/d/e/ (3g/f/e/(3d/c/B/(3A/G/F/ | E/ z/ !>!g>e d/ z/ !>!f>d | %162
 .c/ z/ (!>!e>=d c/B/d/B/).B/.B/ | .A/ z/ (c>B A/G/B/G/).G/.G/ | %164
 (PG/F/A/F/).F/.F/ (PF/E/G/).g/.f/.e/ | (3.c/(a/g/(3a/g/f/(3e/d/c/ (3B/f/e/(3d/c/B/(3A/G/F/ | %166
 E) z z (^A3{^^GA} | B/) z/ (g>e d/) z/ (f>A | G) z z z (3(e/d/e/(3=g/f/e/ | %169
 ^g/) z/ (g>e d/) z/ (f>A) | (g3"_dolce\n\n" b3 | e3) z/ (B/c/d/e/f/ | g3 b3 | %173
 e3) z/!<(! (B/c/d/e/f/!<)! | g2 e b2 g | e).e.G .B.e.g | z2 z e2 z | g2 z g2 z |][K:C][M:2/4] z4 | %179
 z4 | z4 | z4 | .c/.g/.e/.g/ .c/.g/.e/.g/ | .e/.c'/.g/.c'/ .e/.c'/.g/.c'/ | %184
 .d/.c'/.a/.c'/ .d/.c'/.a/.c'/ | z/4!<(! (d/4^f/4a/4!<)!!>(!c'/4b/4d'/4c'/4 b)!>)! z | z2 z2 | z4 | %188
 z4 | z4 | c/g/e/g/ c/g/.e/.g/ | .e/.c'/.g/.c'/ .e/.c'/.g/.c'/ | .f/.c'/.a/.f/ .e/.g/.f/.g/ | %193
 z/4!<(! (e/4f/4e/4!<)!!>(!f/4d/4g/4f/4 e)!>)! z | z4 | z2 z c/>c/ | %196
!<(! (c7/8A/8e7/8c/8 a7/8e/8c'7/8a/8)!<)! |!p! f/>f/(((f/{gf}.=e/4))).f/4 g z | z2 z z | %199
 z2 z D/>D/ |!<(! (B7/8G/8B7/8B/8 g7/8d/8b7/8g/8)!<)! |!p! f/>f/(((f/{gf}.=e/4))).f/4 a z | %202
 z/4 (B/4^d/4^f/4b/4a/4g/4f/4 e) z | z/4 (A/4^c/4e/4a/4g/4^f/4e/4 =d) z | z2 z2 | %205
 z/4 z/8!p! (^g/4<.a/4)(^f/4<.=g/4)(f/4<.g/4)(e/8 .f/4)(f/8g/8a/8b/8c'/8b/8a/8g/8f/8e/8d/8c/8B/8A/8 | %206
 G/) z/ z z z/ z/ | z2 z!p! B/>B/ |"_cresc." (B7/8G/8d7/8c/8 Bd/>)d/ | d7/8B/8f/>e/ df/>f/ | %210
!f! (f/>e/f/4e/4f/4e/4"_dim." f/4).e/4.d/4.c/4.B/4.A/4.G/4.F/4 | %211
 (E/4F/4G/4F/4A/4G/4F/4E/4)!p! D/(.A/.G/.F/) | E2 CE | (G-G/B/4A/4 G)G/>G/ |!<(! (Gc ee)!<)! | %215
 (g-g/>d/ e) z | z2 z2 | z4 | z4 | z4 | z4 | z4 | g z z2 | z4 | c'-c'/>g/ e7/8B/8c7/8G/8 | %225
 E-E z/4 C/4E/4G/4c/4e/4g/4_b/4 | (a3/4^g/8a/8g/8a/8=b/8a/8=g/8f/8e/8d/8)!<(! (c!turn!d/>G/)!<)! | %227
!>(! F-F E!>)! z |!p! B-B c z |!p! (f-f/4d/4g/4f/4) e!>!e/>!>!e/ | %230
"_smorzando\n\n" (!>!e-e/g/ !>!e/g/!>!e/g/) | e3 z |][K:E][M:2/4] z2 | z4 | z4 | z4 | z4 | z4 | %238
 z4 | z4 | z2 z2 |!p! .g.b .g.b | .g.b .g.b | .g!p!.b .g.b | .a.b .a.b | .a.b .a.b | .a.b .a.b | %247
 .a.b .a.b | .g.b .g!f!(e/e'/) | (e'>d' c'/b/a/g/) | (g/f/a/g/ f)(f/c'/) | (c'-c'/b/ a/f/c/d/ | %252
 f/e/g/f/ e)!f!(G/g/) | .g(G/f/) .f(G/e/) | .eG/d/ d(G/c/) |!>(! (c3 d/c/!>)! |!p! ^B2) z z | %257
 (g-g ^B-B | c2 d-d |!>(! e/d/c/d/ e/^e/f/^^f/)!>)! |!p! g/^^f/g/a/ g z |!f! (=d4 | c3 ^d/c/) | %263
 (B2 f2 | f2 e2 | e2) z z | d2 z2 | .e.B .e.B | .e.B .e.B | .e.B .e.B | .d.B .d.B | .f.B .f.B | %272
 .f.B .f.B | .d.B .f.B | .e.B .e z |!mf! e/b/g/b/ e/b/g/b/ | e/b/g/b/ e/b/g/b/ | %277
 e/b/g/b/ e/b/g/b/ | d/b/a/b/ d/b/a/b/ | f/b/a/b/ f/b/a/b/ | f/b/a/b/ f/b/a/b/ | %281
 d/b/a/b/ f/b/a/b/ | e/b/g/b/ e z | z4 | z4 | z4 | z2 z!f! .E/.F/ | (^^F/G/).A/.^F/ .G.e/.f/ | %288
 (^^f/g/).a/.^f/ .g(g/f/) | (e/d/f/e/ d/c/^B/d/) |!p! .c.G .E z | z4 | z4 | z4 | z2 z!f! .c/.d/ | %295
 (d/e/).f/.d/ .e.c/.d/ | (d/e/).f/.d/ .ee/d/ | (^B/c/e/d/ c/=B/^A/c/ | B)!f!(b/^a/ g/f/e/d/ | %299
 c/B/^A/G/ F/E/D/C/ | B,)(B,/C/ D/E/F/G/ | ^A/B/c/d/ e/d/e/c/ | d-)d/.d/ .f-f/.f/ | %303
 .b>.b .B-B/.B/ | ^A2 z (^a | b)B BB | ^A2 z (^a | b)B BB | ^A z A z | z4 | z4 | z4 | z4 | z4 | %314
 z4 | z4 | z4 | z4 | z4 | z4 | z4 | z4 | z4 | z4 | z4 | z4 | z4 | z4 | (D/B,/).D/.F/ (B/F/).B/.c/ | %329
 (d/B/).f/.e/ d/c/.B/.^A/ | (G>E)"_dim." (D/F/)(D/F/) |!p! (D/F/D/F/ D/F/D/F/ | %332
 E/F/E/F/ E/F/E/F/) | (D/F/D/F/ D/F/D/F/ | E/F/E/F/ E/F/E/F/) | (D/F/D/F/ D/F/D/F/ | %336
 E/F/E/F/ E/F/E/F/) | D2 z z | z4 | z!<(! (b/^a/ b/a/b/a/!<)! |!>(! b/^a/b/a/ b/)!>)! z/ z | %341
 z!<(! (b/^a/ b/a/b/a/!<)! |!f!!>(! b/^a/b/a/ b)!>)! z | z4 | z4 | z4 | z4 | z4 | z4 | z4 | z4 | %351
 z4 | z4 | z4 | z4 |!p! .g.b .g.b | .g.b .g.b | .g.b .g.b | .a.b .a.b | .a.b .a.b | .a.b .a.b | %361
 .a.b .a.b | .g.b .g!f!(e/g/) | (g>d' c'/b/a/g/) | (g/f/a/g/ f)!p!(f/c'/) | %365
 (!>!c'-c'/b/ a/f/c/d/) | (f/e/g/f/ e)!f!(G/g/) | .g(G/f/) .f(G/e/) | .e(G/d/) .d(G/c/) | %369
 (c3 d/c/ | ^B2) z z | (g2 ^B2 | c2 d2 |!>(! e/d/c/d/ e/^e/f/^^f/!>)! |!p! g/^^f/g/a/ g) z | %375
!f! (=d4 | c3 ^d/c/) | (B2 f2 | f2 e2) | (e4 | =d3 e/d/) | (c2 g2 | g2 f2) | (f3 g/f/ | e3 c/^d/) | %385
 (e3 f/e/ | =d- d2 B/c/) | (d3 e/d/ | c2 =c2 | B2 e2 | e^d/c/ Td-d/c/4d/4 |!p! .e).B .e.B | %392
 .e.B .e.B | .e.B .e.B | .d.B .d.B | .f.B .f.B | .f.B .f.B | .d.B .f.B | .e.B .e z | %399
!mf! e/b/g/b/ e/b/g/b/ | e/b/g/b/ e/b/g/b/ | e/b/g/b/ e/b/g/b/ | d/b/a/b/ d/b/a/b/ | %403
 f/b/a/b/ f/b/a/b/ | f/b/a/b/ f/b/a/b/ | d/b/a/b/ f/b/a/b/ | e/b/g/b/!<(! e(e/f/)!<)! | %407
!ff! .=g.g .g.g | .=g z z2 | z4 | z4 ||[K:C] z4 | z4 | z4 | z4 | z4 | z4 | z4 | z4 | z4 | z4 | z4 | %422
 z4 | z4 | z4 | z4 |!p! (g4 | ^fg ag) | (g3 =f | dB G=F | ED ^CD | A3 G) | (G3 F/E/) | E2 z z | %434
 c'4 | (bc' d'c') | (c'3 a | ^fd cA | ^F!>(! e2 _e- | e d2 ^F!>)! | AG) z (d | _e^F) z (F | %442
 AG) z!pp! (d | _e^F) z (F | AG) z/"_cresc." (G/^F/G/ | cB) z/ (B/^A/B/ | =dc) z/ (d/^c/d/ | %447
 a!>(!g) gg!>)! |!p! g4 | (e2 c2 | B2) z z | z2 z z |!p! (g3- g | e2 c2 | B2) z z | z2 z z | (g4 | %457
!<(! e2 c-c | a3!<)!!>(! f) | fd df |!p! f!>)! z e z | a z f z | e2 z z |!<(! c'4 | c'3!<)!!>(! a | %465
 af fa!>)! |!p! BB z c | z d z B | c2 z!f! (c' | b)f ff | e2 z (c | B)F FF | E(e/d/) (f/e/d/c/) | %473
"_dim." .B.d .G.B | A2 z!f! (a | ^g)d dd | c2 z (A | ^G)D DD | C(c/B/) (d/c/)(e/d/) | .c.B .A.=G | %480
 ^F2 z!f! (d | e)^A AA | B2 z (^f | ^g)e ee | ^d z (e2 | ^d) z (e2 | ^d) z B z | z4 | z4 | z4 | %490
 z4 | z4 | z4 | z4 | z4 | z4 | z4 | z4 || z4 | z4 | z4 | z4 | z4 | z4 | z4 | z4 | z4 | z4 | z4 | %509
 z4 | (^G/E/).G/.B/ (e/B/).e/.^f/ | (^g/e/).b/.a/ (g/^f/).e/.^d/ | ^c>a (^g/b/)(a/b/) | %513
!p! (^g/b/g/b/ g/b/g/b/ | a/b/a/b/ a/b/a/b/) | (^g/b/g/b/ g/b/g/b/ | a/b/a/b/ a/b/a/b/) | %517
 (^g/b/g/b/ g/b/g/b/ | a/b/a/b/ a/b/a/b/ | ^g2) z2 | z2 z2 | z!<(! (e/^d/ e/d/e/d/!<)! | %522
!f!!>(! e/^d/e/d/ e)!>)! z | z!<(! (e/^d/ e/d/e/d/!<)! |!f!!>(! e/^d/e/d/ e)!>)! z | z4 | z4 | z4 | %528
 z4 | z4 |!p! (a4 | ^g4 | A3- A | ^g2) z z | z2 z!<(! (3(e/^f/^g/!<)! |!f! a3)"_dim." a | %536
 aa (ab/a/) | ^g-g z z | z2 z!<(! (3(e/^f/^g/!<)! |!f! a3)"_dim." A | AA (AB/A/) | ^G2 z z | %542
 z2 z!p! .^g/"_leggiero".a/ | .^A/.B/.^c/.^d/ .e/.^f/.^g/.=a/ | (^a/b/^c'/b/) .b z | %545
 z"_cresc." (B ^ge | ^d^f ba | ^g) z!f! (B-B/"^sempre"^c/4^d/4 | e) z (B-B/^c/4^d/4 | %549
 e) z (B-B/^c/4^d/4 | e) z (B-B/^c/4^d/4 | e) z2 .^g/.a/ | ((^a/b/)).^c'/.b/ (b/=a/).^g/.^f/ | %553
 e.e/.^e/ .^f/.^^f/.^g/.a/ | (^a/b/).^c'/.b/ (b/=a/).^g/.^f/ | e z z/ .E/.^G/.B/ | %556
 .e/.^G/.B/.e/ .^g/.e/.B/.G/ | .E z2 z | .^g2 z z | .e2"_fine\n\n" z z |] %560

